images/brushstroke.svg

<svg width="358" height="27" viewBox="0 0 358 27" fill="none" xmlns="http://www.w3.org/2000/svg">
<path opacity="0.8" d="M163.631 27L166.483 26.7701L170.064 26.0806L170.777 25.1612L160.773 23.897L166.483 24.2418L157.916 22.9776L168.633 23.7821V23.2074L165.062 22.7477C156.489 22.288 147.198 22.288 139.339 21.5985C143.002 21.4529 146.671 21.3993 150.366 21.3993C158.179 21.3993 166.096 21.6368 174.353 21.7134L177.211 21.4835C166.483 20.794 154.345 20.4492 146.485 18.9552C147.271 18.9552 148.035 18.9475 148.79 18.9398C163.564 18.9398 173.883 20.9166 188.879 20.9166C189.272 20.9166 189.675 20.9166 190.073 20.9166C182.926 19.8822 171.496 19.0778 164.349 18.0434C175.785 18.9628 186.502 20.1121 197.219 21.2613H198.651C212.939 21.7977 225.801 22.2727 238.668 22.7554C259.379 23.6748 278.679 24.5942 298.688 25.8584L282.968 23.6748C292.973 22.5255 304.403 22.8703 313.694 22.4106L316.547 22.2957C304.403 20.4569 288.689 19.7673 276.54 18.3882C285.118 18.733 292.259 19.7673 302.259 19.8822L299.406 19.4225C308.692 19.6524 316.547 20.3419 324.417 21.0315C332.989 19.5375 342.994 18.0434 352.998 17.9285H358L347.283 17.2389L350.853 17.5837L335.847 16.3195L322.272 14.3658L337.986 14.7106L333.708 13.9061C325.848 13.5613 318.701 13.1016 312.986 12.1822L330.132 11.8374L340.136 10.3434L338.71 8.38962C332.638 6.87259 322.742 5.9685 310.837 5.9685C310.134 5.9685 309.415 5.9685 308.697 5.97617L309.405 7.70006L305.84 6.5508L299.411 7.81499L292.978 7.58513C289.407 8.61947 284.756 8.91061 279.759 8.91061C274.762 8.91061 269.399 8.61947 264.396 8.50454L268.685 9.07917C266.401 9.8147 263.652 10.0522 260.774 10.0522C256.444 10.0522 251.824 9.51589 247.964 9.30902L239.448 8.25936C239.179 8.25936 238.931 8.27469 238.678 8.27469L238.993 8.19807L238.678 8.15976L226.529 7.81499L220.101 7.12543L224.39 7.4702L220.819 6.78065L227.966 7.35528L213.673 5.86124L208.67 5.51646L210.102 5.40153L203.668 4.48213L190.093 3.21794L180.797 3.56271L188.667 3.10301L192.951 2.87316L178.658 2.52838L179.371 1.95375C173.651 1.60897 166.504 1.37912 159.357 1.26419H158.649L146.501 1.72389L157.218 1.03434L156.505 0C149.622 0.091941 142.279 0.704885 134.848 0.704885C133.019 0.704885 131.184 0.666572 129.35 0.574631L130.771 0.804486L120.059 0.919413C113.987 1.37146 108.096 1.86947 102.355 2.39813C81.7057 4.30591 63.4439 6.73468 50.0291 9.88365C60.0334 9.1941 70.0376 8.50454 78.6104 7.4702C91.4826 6.43587 104.36 5.96084 117.764 5.96084C119.242 5.96084 120.715 5.97617 122.198 5.97617L107.192 7.81499H107.905L104.334 8.50454L107.192 7.81499C84.3308 7.81499 67.18 10.3434 46.4584 10.4583L50.0291 9.88365C37.8753 10.5732 25.7369 11.2628 13.5881 11.9523L0.00802721 14.9404L11.4436 15.1703L5.01531 15.7449C4.07483 15.9441 0.395592 16.2582 0.0287015 16.5417C-0.203835 16.7256 0.933007 16.9018 5.04115 17.0244C9.14928 17.147 16.2235 17.2313 27.8814 17.2313L40.0249 17.0014C26.45 17.9208 14.3013 18.9552 4.29703 20.6791L13.5881 21.5985C23.1635 21.0928 33.0798 20.8629 43.0117 20.8629C49.6002 20.8629 56.1991 20.9702 62.7204 21.1617C82.3052 21.7594 101.234 23.2074 117.191 25.2761C122.906 25.9657 131.484 26.3104 140.052 26.5403H141.483L137.194 25.9657L143.622 26.4254L133.618 24.5865L146.48 26.1955L148.624 25.9657L137.897 24.8164L150.051 25.8507L152.913 25.391L163.631 27ZM58.5865 15.8522L61.4441 15.7372L64.3017 15.5074L67.1645 15.3924L69.8722 15.1779C69.9704 15.1779 70.0634 15.1626 70.1513 15.1626L72.8797 15.0553L75.7373 14.8255L78.5949 14.7106L81.4577 14.4807L84.3153 14.2509L86.4598 14.1359L89.3174 13.9061L92.1802 13.6762L95.0326 13.4464L97.1823 13.2165L100.04 12.9867L102.179 12.6419C91.1777 12.9484 81.7729 13.7758 72.4663 14.6263L71.4586 14.7106L70.6938 14.7948C69.557 14.9021 68.4098 15.0017 67.2678 15.109L66.4514 15.1703L63.5989 15.4001L62.0073 15.5687C60.8705 15.6683 59.744 15.7602 58.5968 15.8598M11.4385 15.1703C12.6787 15.1779 13.9447 15.1856 15.2262 15.2009C16.0944 15.1932 16.9832 15.1856 17.8668 15.1703H20.7296L23.582 15.0553L27.1631 14.9404L28.8735 14.8025C30.4238 14.7106 31.974 14.6033 33.5294 14.4807H33.5914L36.449 14.2432L33.5914 14.473H33.5656C34.5267 14.3964 35.4827 14.3198 36.449 14.2432C35.2915 14.3581 34.0255 14.4347 32.7388 14.5037L30.7235 14.588L27.1579 14.7029L26.0314 14.7489C24.9307 14.7718 23.8146 14.7948 22.6932 14.8178H20.7296L18.6884 14.9021C16.1719 14.9634 13.7122 15.0324 11.4385 15.1626M309.395 7.69239V8.03718L312.258 8.38195L309.395 7.69239Z" fill="#D9D3DD"/>

<svg width="358" height="27" viewBox="0 0 358 27" fill="none" xmlns="http://www.w3.org/2000/svg"><path opacity=".8" d="m163.631 27 2.852-.23 3.581-.69.713-.919-10.004-1.264 5.71.345-8.567-1.264 10.717.804v-.575l-3.571-.46c-8.573-.459-17.864-.459-25.723-1.148 3.663-.146 7.332-.2 11.027-.2 7.813 0 15.73.238 23.987.314l2.858-.23c-10.728-.689-22.866-1.034-30.726-2.528.786 0 1.55-.007 2.305-.015 14.774 0 25.093 1.977 40.089 1.977h1.194c-7.147-1.035-18.577-1.84-25.724-2.874 11.436.92 22.153 2.07 32.87 3.218h1.432c14.288.537 27.15 1.012 40.017 1.494 20.711.92 40.011 1.84 60.02 3.103l-15.72-2.183c10.005-1.15 21.435-.805 30.726-1.264l2.853-.115c-12.144-1.84-27.858-2.529-40.007-3.908 8.578.345 15.719 1.38 25.719 1.494l-2.853-.46c9.286.23 17.141.92 25.011 1.61 8.572-1.494 18.577-2.989 28.581-3.104H358l-10.717-.69 3.57.346-15.006-1.264-13.575-1.954 15.714.345-4.278-.805c-7.86-.345-15.007-.804-20.722-1.724l17.146-.345 10.004-1.494-1.426-1.953c-6.072-1.517-15.968-2.422-27.873-2.422-.703 0-1.422 0-2.14.008l.708 1.724-3.565-1.15-6.429 1.265-6.433-.23c-3.571 1.034-8.222 1.326-13.219 1.326s-10.36-.292-15.363-.406l4.289.574c-2.284.736-5.033.973-7.911.973-4.33 0-8.95-.536-12.81-.743l-8.516-1.05c-.269 0-.517.016-.77.016l.315-.077-.315-.038-12.149-.345-6.428-.69 4.289.345-3.571-.69 7.147.575-14.293-1.494-5.003-.345 1.432-.114-6.434-.92-13.575-1.264-9.296.345 7.87-.46 4.284-.23-14.293-.345.713-.574c-5.72-.345-12.867-.575-20.014-.69h-.708l-12.148.46 10.717-.69L156.505 0c-6.883.092-14.226.705-21.657.705-1.829 0-3.664-.038-5.498-.13l1.421.23-10.712.114c-6.072.452-11.963.95-17.704 1.48-20.65 1.907-38.911 4.336-52.326 7.485 10.004-.69 20.009-1.38 28.581-2.414 12.873-1.034 25.75-1.51 39.154-1.51 1.478 0 2.951.016 4.434.016l-15.006 1.839h.713l-3.571.69 2.858-.69c-22.861 0-40.012 2.528-60.734 2.643l3.571-.574-36.44 2.068L.007 14.94l11.436.23-6.429.575c-.94.2-4.62.513-4.986.797-.233.184.904.36 5.012.482 4.108.123 11.183.207 22.84.207l12.144-.23c-13.575.92-25.724 1.954-35.728 3.678l9.291.92c9.575-.506 19.492-.736 29.424-.736 6.588 0 13.187.107 19.708.299 19.585.597 38.514 2.045 54.471 4.114 5.715.69 14.293 1.034 22.861 1.264h1.431l-4.289-.574 6.428.46-10.004-1.84 12.862 1.61 2.144-.23-10.727-1.15 12.154 1.035 2.862-.46L163.631 27ZM58.587 15.852l2.857-.115 2.858-.23 2.862-.115 2.708-.214c.098 0 .191-.015.28-.015l2.728-.108 2.857-.23 2.858-.114 2.863-.23 2.857-.23 2.145-.115 2.857-.23 2.863-.23 2.853-.23 2.15-.23 2.857-.23 2.139-.344c-11.001.306-20.406 1.134-29.713 1.984l-1.007.085-.765.084c-1.137.107-2.284.207-3.426.314l-.817.061-2.852.23-1.592.169c-1.136.1-2.263.191-3.41.29m-47.159-.689c1.24.008 2.507.016 3.788.03.868-.007 1.757-.014 2.64-.03h2.864l2.852-.115 3.581-.115 1.71-.137c1.55-.092 3.101-.2 4.656-.322h.062l2.858-.238-2.858.23h-.025l2.883-.23a84.046 84.046 0 0 1-3.71.26l-2.015.085-3.566.115-1.127.046-3.338.069H20.73l-2.042.084c-2.516.061-4.976.13-7.25.26m297.957-7.47v.345l2.863.345-2.863-.69Z" fill="#D9D3DD"/></svg>
